X: 1
T: Pub With No Beer, The
M: 3/4
L: 1/8
R: waltz
K: Edor
BE ED GE|BE ED GE|AB AF DF|AF dB AF|
BE ED GE|BE EF GB|AF DF AF|GE E2 GA:|
Be ed BA|Bg gf ed|Ad FA dA|fA eA dA|
Be ed BA|Bg gf ed|AF DF AF|GE E2 GA:|
